svgs/sharp-light/image-polaroid-user.svg

<svg xmlns="http://www.w3.org/2000/svg" viewBox="0 0 448 512"><!--! Font Awesome Pro 6.6.0 by @fontawesome - https://fontawesome.com License - https://fontawesome.com/license (Commercial License) Copyright 2024 Fonticons, Inc. --><path d="M340 384l76 0 0 64L32 448l0-64 76 0 34.2 0 163.6 0 34.2 0zm-12-32l-24-64-80 0-80 0-24 64-88 0L32 64l384 0 0 288-88 0zm-173.8 0l12-32 115.6 0 12 32-139.6 0zM448 368l0-16 0-288 0-32-32 0L32 32 0 32 0 64 0 352l0 16 0 16 0 64 0 32 32 0 384 0 32 0 0-32 0-64 0-16zM288 192a64 64 0 1 0 -128 0 64 64 0 1 0 128 0zm-96 0a32 32 0 1 1 64 0 32 32 0 1 1 -64 0z"/></svg>

<svg xmlns="http://www.w3.org/2000/svg" viewBox="0 0 448 512"><!--! Font Awesome Pro 6.4.2 by @fontawesome - https://fontawesome.com License - https://fontawesome.com/license (Commercial License) Copyright 2023 Fonticons, Inc. --><path d="M340 384h76v64H32V384h76 34.2H305.8 340zm-12-32l-24-64H224 144l-24 64H32V64H416V352H328zm-173.8 0l12-32H281.8l12 32H154.2zM448 368V352 64 32H416 32 0V64 352v16 16 64 32H32 416h32V448 384 368zM288 192a64 64 0 1 0 -128 0 64 64 0 1 0 128 0zm-96 0a32 32 0 1 1 64 0 32 32 0 1 1 -64 0z"/></svg>
